icons/filled/headphones.svg

<svg xmlns="http://www.w3.org/2000/svg" width="24" height="24" viewBox="0 0 24 24" fill="currentColor"><path d="M21 18a3 3 0 0 1 -2.824 2.995l-.176 .005h-1a3 3 0 0 1 -2.995 -2.824l-.005 -.176v-3a3 3 0 0 1 2.824 -2.995l.176 -.005h1c.351 0 .688 .06 1 .171v-.171a7 7 0 0 0 -13.996 -.24l-.004 .24v.17c.25 -.088 .516 -.144 .791 -.163l.209 -.007h1a3 3 0 0 1 2.995 2.824l.005 .176v3a3 3 0 0 1 -2.824 2.995l-.176 .005h-1a3 3 0 0 1 -2.995 -2.824l-.005 -.176v-6a9 9 0 0 1 17.996 -.265l.004 .265v6z"/></svg>

<svg xmlns="http://www.w3.org/2000/svg" width="24" height="24" fill="currentColor"><path d="M21 18a3 3 0 0 1-2.824 2.995L18 21h-1a3 3 0 0 1-2.995-2.824L14 18v-3a3 3 0 0 1 2.824-2.995L17 12h1c.351 0 .688.06 1 .171V12a7 7 0 0 0-13.996-.24L5 12v.17q.377-.133.791-.163L6 12h1a3 3 0 0 1 2.995 2.824L10 15v3a3 3 0 0 1-2.824 2.995L7 21H6a3 3 0 0 1-2.995-2.824L3 18v-6a9 9 0 0 1 17.996-.265L21 12z"/></svg>
